img/icon7.svg

<svg width="110" height="63" viewBox="0 0 110 63" fill="none" xmlns="http://www.w3.org/2000/svg">
<rect width="110" height="63" fill="white"/>
<path d="M18.5191 26.288C16.0231 26.288 13.9991 25.416 12.4471 23.672L14.5831 21.608C15.0951 22.2 15.6711 22.664 16.3111 23C16.9511 23.32 17.6871 23.48 18.5191 23.48C19.5591 23.48 20.3511 23.288 20.8951 22.904C21.4391 22.52 21.7111 21.96 21.7111 21.224V21.008C21.7111 20.288 21.4871 19.76 21.0391 19.424C20.6071 19.072 19.9191 18.896 18.9751 18.896H16.1671V16.112H18.8311C20.5431 16.112 21.3991 15.392 21.3991 13.952V13.76C21.3991 13.12 21.1671 12.632 20.7031 12.296C20.2551 11.944 19.5671 11.768 18.6391 11.768C17.8711 11.768 17.1671 11.912 16.5271 12.2C15.9031 12.488 15.3831 12.888 14.9671 13.4L12.9511 11.48C13.6231 10.68 14.4311 10.064 15.3751 9.63199C16.3351 9.18399 17.4231 8.95999 18.6391 8.95999C20.5751 8.95999 22.0791 9.37599 23.1511 10.208C24.2231 11.024 24.7591 12.136 24.7591 13.544C24.7591 14.68 24.4311 15.552 23.7751 16.16C23.1351 16.752 22.3271 17.104 21.3511 17.216V17.36C21.8311 17.392 22.2951 17.496 22.7431 17.672C23.1911 17.832 23.5831 18.072 23.9191 18.392C24.2711 18.696 24.5511 19.08 24.7591 19.544C24.9671 19.992 25.0711 20.52 25.0711 21.128C25.0711 21.896 24.9191 22.6 24.6151 23.24C24.3111 23.864 23.8791 24.408 23.3191 24.872C22.7591 25.32 22.0711 25.672 21.2551 25.928C20.4391 26.168 19.5271 26.288 18.5191 26.288ZM26.3098 23.552H27.8938C28.3578 22.88 28.7018 22.032 28.9258 21.008C29.1498 19.984 29.2617 18.664 29.2617 17.048V13.472H38.8858V23.552H41.0218V29.36H38.2378V26H29.0938V29.36H26.3098V23.552ZM35.8138 23.552V15.92H32.1898V17.192C32.1898 18.904 32.0858 20.264 31.8778 21.272C31.6698 22.264 31.4138 23.024 31.1098 23.552H35.8138ZM52.4373 26C51.7653 26 51.2293 25.808 50.8293 25.424C50.4453 25.024 50.2053 24.496 50.1093 23.84H49.9653C49.7573 24.656 49.3333 25.272 48.6933 25.688C48.0533 26.088 47.2613 26.288 46.3173 26.288C45.0373 26.288 44.0533 25.952 43.3653 25.28C42.6773 24.608 42.3333 23.712 42.3333 22.592C42.3333 21.296 42.7973 20.336 43.7253 19.712C44.6533 19.072 45.9733 18.752 47.6853 18.752H49.8213V17.84C49.8213 17.136 49.6373 16.592 49.2693 16.208C48.9013 15.824 48.3093 15.632 47.4933 15.632C46.7733 15.632 46.1893 15.792 45.7413 16.112C45.3093 16.416 44.9413 16.784 44.6373 17.216L42.8133 15.584C43.2773 14.864 43.8933 14.288 44.6613 13.856C45.4293 13.408 46.4453 13.184 47.7093 13.184C49.4053 13.184 50.6933 13.568 51.5733 14.336C52.4533 15.104 52.8933 16.208 52.8933 17.648V23.552H54.1413V26H52.4373ZM47.3493 24.056C48.0373 24.056 48.6213 23.904 49.1013 23.6C49.5813 23.296 49.8213 22.848 49.8213 22.256V20.6H47.8533C46.2533 20.6 45.4533 21.112 45.4533 22.136V22.544C45.4533 23.056 45.6133 23.44 45.9333 23.696C46.2693 23.936 46.7413 24.056 47.3493 24.056ZM56.6276 13.472H59.6996V18.392H64.5236V13.472H67.5956V26H64.5236V20.84H59.6996V26H56.6276V13.472ZM71.1588 13.472H74.1588V19.064L73.8948 21.992H73.9908L75.4548 19.328L79.3668 13.472H82.1268V26H79.1268V20.408L79.3908 17.456H79.2948L77.8308 20.144L73.9188 26H71.1588V13.472ZM90.7541 26.288C89.8261 26.288 88.9941 26.136 88.2581 25.832C87.5381 25.512 86.9221 25.072 86.4101 24.512C85.9141 23.936 85.5301 23.248 85.2581 22.448C84.9861 21.632 84.8501 20.72 84.8501 19.712C84.8501 18.72 84.9781 17.824 85.2341 17.024C85.5061 16.224 85.8901 15.544 86.3861 14.984C86.8821 14.408 87.4901 13.968 88.2101 13.664C88.9301 13.344 89.7461 13.184 90.6581 13.184C91.6341 13.184 92.4821 13.352 93.2021 13.688C93.9221 14.024 94.5141 14.48 94.9781 15.056C95.4421 15.632 95.7861 16.304 96.0101 17.072C96.2501 17.824 96.3701 18.632 96.3701 19.496V20.504H88.0421V20.816C88.0421 21.728 88.2981 22.464 88.8101 23.024C89.3221 23.568 90.0821 23.84 91.0901 23.84C91.8581 23.84 92.4821 23.68 92.9621 23.36C93.4581 23.04 93.8981 22.632 94.2821 22.136L95.9381 23.984C95.4261 24.704 94.7221 25.272 93.8261 25.688C92.9461 26.088 91.9221 26.288 90.7541 26.288ZM90.7061 15.488C89.8901 15.488 89.2421 15.76 88.7621 16.304C88.2821 16.848 88.0421 17.552 88.0421 18.416V18.608H93.1781V18.392C93.1781 17.528 92.9621 16.832 92.5301 16.304C92.1141 15.76 91.5061 15.488 90.7061 15.488ZM9.43848 47.976L15.9185 44.016V43.848L9.43848 39.888V36.768L19.0865 42.912V44.928L9.43848 51.12V47.976ZM33.8131 36.984H26.2771L25.8931 42.6H26.0611C26.2371 42.248 26.4291 41.92 26.6371 41.616C26.8451 41.312 27.0851 41.056 27.3571 40.848C27.6291 40.64 27.9411 40.48 28.2931 40.368C28.6611 40.24 29.1011 40.176 29.6131 40.176C30.3331 40.176 31.0051 40.296 31.6291 40.536C32.2531 40.776 32.7891 41.128 33.2371 41.592C33.7011 42.04 34.0611 42.592 34.3171 43.248C34.5891 43.904 34.7251 44.648 34.7251 45.48C34.7251 46.328 34.5891 47.104 34.3171 47.808C34.0451 48.512 33.6451 49.128 33.1171 49.656C32.5891 50.168 31.9411 50.568 31.1731 50.856C30.4051 51.144 29.5251 51.288 28.5331 51.288C27.7651 51.288 27.0771 51.2 26.4691 51.024C25.8611 50.864 25.3251 50.64 24.8611 50.352C24.3971 50.064 23.9971 49.736 23.6611 49.368C23.3251 48.984 23.0291 48.584 22.7731 48.168L25.0771 46.392C25.2691 46.712 25.4691 47.016 25.6771 47.304C25.8851 47.576 26.1251 47.816 26.3971 48.024C26.6851 48.232 26.9971 48.4 27.3331 48.528C27.6851 48.64 28.0931 48.696 28.5571 48.696C29.5011 48.696 30.2131 48.432 30.6931 47.904C31.1891 47.376 31.4371 46.656 31.4371 45.744V45.552C31.4371 44.688 31.1891 44.008 30.6931 43.512C30.1971 43.016 29.5091 42.768 28.6291 42.768C27.9411 42.768 27.3811 42.904 26.9491 43.176C26.5171 43.432 26.1731 43.712 25.9171 44.016L23.3251 43.656L23.9491 34.248H33.8131V36.984ZM43.0438 51.288C41.9718 51.288 41.0438 51.096 40.2598 50.712C39.4758 50.312 38.8278 49.744 38.3158 49.008C37.8038 48.272 37.4198 47.368 37.1638 46.296C36.9238 45.224 36.8038 44 36.8038 42.624C36.8038 41.264 36.9238 40.048 37.1638 38.976C37.4198 37.888 37.8038 36.976 38.3158 36.24C38.8278 35.504 39.4758 34.944 40.2598 34.56C41.0438 34.16 41.9718 33.96 43.0438 33.96C45.1718 33.96 46.7398 34.72 47.7478 36.24C48.7718 37.76 49.2838 39.888 49.2838 42.624C49.2838 45.36 48.7718 47.488 47.7478 49.008C46.7398 50.528 45.1718 51.288 43.0438 51.288ZM43.0438 48.624C44.1158 48.624 44.8598 48.224 45.2758 47.424C45.7078 46.608 45.9238 45.512 45.9238 44.136V41.112C45.9238 39.736 45.7078 38.648 45.2758 37.848C44.8598 37.032 44.1158 36.624 43.0438 36.624C41.9718 36.624 41.2198 37.032 40.7878 37.848C40.3718 38.648 40.1638 39.736 40.1638 41.112V44.136C40.1638 45.512 40.3718 46.608 40.7878 47.424C41.2198 48.224 41.9718 48.624 43.0438 48.624ZM57.6823 38.472H61.2103L64.5223 43.992H64.6183L67.8823 38.472H71.3143V51H68.3383V42.264H68.2422L67.3783 43.896L64.4983 48.648L61.6183 43.896L60.7543 42.264H60.6583V51H57.6823V38.472ZM73.3979 48.552H75.0299C75.1899 48.312 75.3339 48.024 75.4619 47.688C75.6059 47.352 75.7259 46.944 75.8219 46.464C75.9179 45.968 75.9899 45.384 76.0379 44.712C76.1019 44.024 76.1339 43.224 76.1339 42.312V38.472H85.6619V51H82.5899V40.92H79.0619V42.456C79.0619 43.592 79.0219 44.584 78.9419 45.432C78.8619 46.264 78.7419 46.984 78.5819 47.592C78.4379 48.2 78.2539 48.712 78.0299 49.128C77.8219 49.528 77.5899 49.856 77.3339 50.112C76.9659 50.48 76.5499 50.736 76.0859 50.88C75.6219 51.024 75.0539 51.096 74.3819 51.096H73.3979V48.552ZM89.1823 38.472H92.2543V43.392H97.0783V38.472H100.15V51H97.0783V45.84H92.2543V51H89.1823V38.472Z" fill="#000105"/>
<path d="M109 1H1V62H109V1Z" stroke="black" stroke-width="2"/>
</svg>

<svg width="110" height="63" fill="none" xmlns="http://www.w3.org/2000/svg"><path fill="#fff" d="M0 0h110v63H0z"/><path d="M18.52 26.288c-2.497 0-4.52-.872-6.073-2.616l2.136-2.064A5.919 5.919 0 0016.311 23c.64.32 1.376.48 2.208.48 1.04 0 1.832-.192 2.376-.576.544-.384.816-.944.816-1.68v-.216c0-.72-.224-1.248-.672-1.584-.432-.352-1.12-.528-2.064-.528h-2.808v-2.784h2.664c1.712 0 2.568-.72 2.568-2.16v-.192c0-.64-.232-1.128-.696-1.464-.448-.352-1.136-.528-2.064-.528-.768 0-1.472.144-2.112.432a4.299 4.299 0 00-1.56 1.2l-2.016-1.92a6.854 6.854 0 012.424-1.848c.96-.448 2.048-.672 3.264-.672 1.936 0 3.44.416 4.512 1.248 1.072.816 1.608 1.928 1.608 3.336 0 1.136-.328 2.008-.984 2.616-.64.592-1.448.944-2.424 1.056v.144c.48.032.944.136 1.392.312.448.16.84.4 1.176.72.352.304.632.688.84 1.152.208.448.312.976.312 1.584a4.86 4.86 0 01-.456 2.112 4.882 4.882 0 01-1.296 1.632c-.56.448-1.248.8-2.064 1.056-.816.24-1.728.36-2.736.36zm7.79-2.736h1.584c.464-.672.808-1.52 1.032-2.544.224-1.024.336-2.344.336-3.96v-3.576h9.624v10.08h2.136v5.808h-2.784V26h-9.144v3.36H26.31v-5.808zm9.504 0V15.92H32.19v1.272c0 1.712-.104 3.072-.312 4.08-.208.992-.464 1.752-.768 2.28h4.704zM52.437 26c-.672 0-1.208-.192-1.608-.576-.384-.4-.624-.928-.72-1.584h-.144c-.208.816-.632 1.432-1.272 1.848-.64.4-1.432.6-2.376.6-1.28 0-2.264-.336-2.952-1.008-.688-.672-1.032-1.568-1.032-2.688 0-1.296.464-2.256 1.392-2.88.928-.64 2.248-.96 3.96-.96h2.136v-.912c0-.704-.184-1.248-.552-1.632-.368-.384-.96-.576-1.776-.576-.72 0-1.304.16-1.752.48-.432.304-.8.672-1.104 1.104l-1.824-1.632a5.183 5.183 0 011.848-1.728c.768-.448 1.784-.672 3.048-.672 1.696 0 2.984.384 3.864 1.152.88.768 1.32 1.872 1.32 3.312v5.904h1.248V26h-1.704zm-5.088-1.944c.688 0 1.272-.152 1.752-.456.48-.304.72-.752.72-1.344V20.6h-1.968c-1.6 0-2.4.512-2.4 1.536v.408c0 .512.16.896.48 1.152.336.24.808.36 1.416.36zm9.279-10.584H59.7v4.92h4.824v-4.92h3.072V26h-3.072v-5.16H59.7V26h-3.072V13.472zm14.53 0h3v5.592l-.263 2.928h.096l1.464-2.664 3.912-5.856h2.76V26h-3v-5.592l.264-2.952h-.096l-1.464 2.688L73.919 26h-2.76V13.472zm19.596 12.816c-.928 0-1.76-.152-2.496-.456a5.496 5.496 0 01-1.848-1.32c-.496-.576-.88-1.264-1.152-2.064-.272-.816-.408-1.728-.408-2.736 0-.992.128-1.888.384-2.688.272-.8.656-1.48 1.152-2.04a4.87 4.87 0 011.824-1.32c.72-.32 1.536-.48 2.448-.48.976 0 1.824.168 2.544.504a4.9 4.9 0 011.776 1.368 5.732 5.732 0 011.032 2.016c.24.752.36 1.56.36 2.424v1.008h-8.328v.312c0 .912.256 1.648.768 2.208.512.544 1.272.816 2.28.816.768 0 1.392-.16 1.872-.48.496-.32.936-.728 1.32-1.224l1.656 1.848c-.512.72-1.216 1.288-2.112 1.704-.88.4-1.904.6-3.072.6zm-.048-10.8c-.816 0-1.464.272-1.944.816-.48.544-.72 1.248-.72 2.112v.192h5.136v-.216c0-.864-.216-1.56-.648-2.088-.416-.544-1.024-.816-1.824-.816zM9.438 47.976l6.48-3.96v-.168l-6.48-3.96v-3.12l9.649 6.144v2.016L9.438 51.12v-3.144zm24.375-10.992h-7.536l-.384 5.616h.168c.176-.352.368-.68.576-.984.208-.304.448-.56.72-.768.272-.208.584-.368.936-.48.368-.128.808-.192 1.32-.192.72 0 1.392.12 2.016.36.624.24 1.16.592 1.608 1.056.464.448.824 1 1.08 1.656.272.656.408 1.4.408 2.232 0 .848-.136 1.624-.408 2.328a5.27 5.27 0 01-1.2 1.848c-.528.512-1.176.912-1.944 1.2-.768.288-1.648.432-2.64.432-.768 0-1.456-.088-2.064-.264a5.856 5.856 0 01-1.608-.672 5.637 5.637 0 01-1.2-.984 8.928 8.928 0 01-.888-1.2l2.304-1.776c.192.32.392.624.6.912.208.272.448.512.72.72.288.208.6.376.936.504.352.112.76.168 1.224.168.944 0 1.656-.264 2.136-.792.496-.528.744-1.248.744-2.16v-.192c0-.864-.248-1.544-.744-2.04s-1.184-.744-2.064-.744c-.688 0-1.248.136-1.68.408-.432.256-.776.536-1.032.84l-2.592-.36.624-9.408h9.864v2.736zm9.23 14.304c-1.071 0-2-.192-2.783-.576a5.238 5.238 0 01-1.944-1.704c-.512-.736-.896-1.64-1.152-2.712-.24-1.072-.36-2.296-.36-3.672 0-1.36.12-2.576.36-3.648.256-1.088.64-2 1.152-2.736a5.037 5.037 0 011.944-1.68c.784-.4 1.712-.6 2.784-.6 2.128 0 3.696.76 4.704 2.28 1.024 1.52 1.536 3.648 1.536 6.384s-.512 4.864-1.536 6.384c-1.008 1.52-2.576 2.28-4.704 2.28zm0-2.664c1.073 0 1.817-.4 2.233-1.2.432-.816.648-1.912.648-3.288v-3.024c0-1.376-.216-2.464-.648-3.264-.416-.816-1.16-1.224-2.232-1.224-1.072 0-1.824.408-2.256 1.224-.416.8-.624 1.888-.624 3.264v3.024c0 1.376.208 2.472.624 3.288.432.8 1.184 1.2 2.256 1.2zm14.64-10.152h3.527l3.312 5.52h.096l3.264-5.52h3.432V51h-2.976v-8.736h-.096l-.864 1.632-2.88 4.752-2.88-4.752-.864-1.632h-.096V51h-2.976V38.472zm15.715 10.08h1.632c.16-.24.304-.528.432-.864.144-.336.264-.744.36-1.224.096-.496.168-1.08.216-1.752.064-.688.096-1.488.096-2.4v-3.84h9.528V51H82.59V40.92h-3.528v1.536c0 1.136-.04 2.128-.12 2.976-.08.832-.2 1.552-.36 2.16-.144.608-.328 1.12-.552 1.536-.208.4-.44.728-.696.984a3.013 3.013 0 01-1.248.768c-.464.144-1.032.216-1.704.216h-.984v-2.544zm15.784-10.08h3.072v4.92h4.824v-4.92h3.072V51h-3.072v-5.16h-4.824V51h-3.072V38.472z" fill="#000105"/><path d="M109 1H1v61h108V1z" stroke="#000" stroke-width="2"/></svg>
